assets/Delivery truck/Flat/delivery_truck_flat.svg

<svg width="32" height="32" viewBox="0 0 32 32" fill="none" xmlns="http://www.w3.org/2000/svg">
<path d="M2.16 19.3L5.53 12.89C5.82 12.34 6.39 12 7.01 12H14L15 21L2 20C2 19.73 2.05 19.55 2.16 19.3Z" fill="#E6E6E6"/>
<path d="M2.31 19H8.9C9.51 19 10 18.51 10 17.9V14.11C10 13.5 9.51 13.01 8.9 13.01H5.48L2.31 19Z" fill="#26C9FC"/>
<path d="M2 20V25.23C2 26.21 2.8 27.01 3.78 27.01H28.2C29.19 27.01 30 26.2 30 25.21V20L22.5 17L14 20H2Z" fill="#FF822D"/>
<path d="M12 26.5C12 28.433 10.433 30 8.5 30C6.567 30 5 28.433 5 26.5C5 24.567 6.567 23 8.5 23C10.433 23 12 24.567 12 26.5ZM27 26.5C27 28.433 25.433 30 23.5 30C21.567 30 20 28.433 20 26.5C20 24.567 21.567 23 23.5 23C25.433 23 27 24.567 27 26.5Z" fill="#321B41"/>
<path d="M10 26.5C10 27.3284 9.32843 28 8.5 28C7.67157 28 7 27.3284 7 26.5C7 25.6716 7.67157 25 8.5 25C9.32843 25 10 25.6716 10 26.5ZM25 26.5C25 27.3284 24.3284 28 23.5 28C22.6716 28 22 27.3284 22 26.5C22 25.6716 22.6716 25 23.5 25C24.3284 25 25 25.6716 25 26.5Z" fill="#F4F4F4"/>
<path d="M30 22H29.5C28.65 22 27.96 22.71 28 23.57C28.04 24.38 28.74 25 29.55 25H30V22Z" fill="#CA0B4A"/>
<path d="M17 7H27C28.66 7 30 8.34 30 10V20H14V10C14 8.34 15.34 7 17 7ZM2 25H2.91C3.51 25 4 24.51 4 23.91V22.09C4 21.49 3.51 21 2.91 21H2V25Z" fill="#FCD53F"/>
</svg>

<svg xmlns="http://www.w3.org/2000/svg" width="32" height="32" fill="none"><path fill="#E6E6E6" d="m2.16 19.3 3.37-6.41c.29-.55.86-.89 1.48-.89H14l1 9-13-1c0-.27.05-.45.16-.7Z"/><path fill="#26C9FC" d="M2.31 19H8.9c.61 0 1.1-.49 1.1-1.1v-3.79c0-.61-.49-1.1-1.1-1.1H5.48L2.31 19Z"/><path fill="#FF822D" d="M2 20v5.23c0 .98.8 1.78 1.78 1.78H28.2c.99 0 1.8-.81 1.8-1.8V20l-7.5-3-8.5 3H2Z"/><path fill="#321B41" d="M12 26.5a3.5 3.5 0 1 1-7 0 3.5 3.5 0 0 1 7 0Zm15 0a3.5 3.5 0 1 1-7 0 3.5 3.5 0 0 1 7 0Z"/><path fill="#F4F4F4" d="M10 26.5a1.5 1.5 0 1 1-3 0 1.5 1.5 0 0 1 3 0Zm15 0a1.5 1.5 0 1 1-3 0 1.5 1.5 0 0 1 3 0Z"/><path fill="#CA0B4A" d="M30 22h-.5c-.85 0-1.54.71-1.5 1.57.04.81.74 1.43 1.55 1.43H30v-3Z"/><path fill="#FCD53F" d="M17 7h10c1.66 0 3 1.34 3 3v10H14V10c0-1.66 1.34-3 3-3ZM2 25h.91c.6 0 1.09-.49 1.09-1.09v-1.82c0-.6-.49-1.09-1.09-1.09H2v4Z"/></svg>
